X:1
T:Last Night I Had the Strangest Dream
M:3/4
L:1/2
K:C
 G/2| GE/4-D/4| C G/2| GE/4-D/4| C c/2| cA/4-G/4| F/2- G/2 A/2| G3/2-|\
 G G/2| G F/2| D G/2| GE/4-D/4| C z/4 E/4| D/2- E/2 F/2| F/4- E3/4 D/2|\
 C3/2-| C C/2| cA/4-G/4| F c/2| cG/4-F/4| E G/4G/4| G G/2| A A/2| G3/2-|\
 G c/4c/4| cA/4-G/4| F c/2| cG/4-F/4| E G/2| G/4 G3/4- G/2| F/2- E/2 D/2|\
 C3/2-| C|
